!!!!SEGMENT: pl-kk--kk-i-59--001_anonim--missa-a-3-kyrie.krn
!!!cenid: 17xx:2245
!!!COM: Anonim
!!!COM-rismid: pe30004985
!!!CDT:
!!!CNT:
!!!OTL: Missa a 3 – Kyrie
!!!PDT:
!!!AGN: Sacred; Mass
!!!SMS-siglum: PL-Kk
!!!SMS-shelfmark: Kk.I.59
!!!SMS-shelfwork: 001-001 M
!!!SMS-variant:
!!!SMS-altvar:
!!!NIFC-rismid: 1001156799
!!!URL-scan: http://repozytorium.nifc.pl/skany/pl-kk-nut--i-59
!!!ONB-nifc: UWAGA: części Mszy: 1. Kyrie, 2. Et in terra, 3. Sanctus, 4. Benedictus, 5. Agnus Dei.
**kern	**text	**kern	**text	**kern	**text
*part3	*part3	*part2	*part2	*part1	*part1
*staff3	*staff3	*staff2	*staff2	*staff1	*staff1
*I"Baſso	*	*I"Tenore Secondo	*	*I"Tenore Primo	*
*I'B	*	*I'T 2	*	*I'T 1	*
*clefF4	*	*clefC4	*	*clefC4	*
*k[b-e-]	*	*k[b-e-]	*	*k[b-e-]	*
*g:	*	*g:	*	*g:	*
*M2/1	*	*M2/1	*	*M2/1	*
*met(c|)	*	*met(c|)	*	*met(c|)	*
*2\right	*	*2\right	*	*2\right	*
=1	=1	=1	=1	=1	=1
!!LO:TX:t=Miſsa a 3.
!LO:TX:t=P:problem:kolejność bemoli:E-,BB-	!	!	!	!	!
2r	.	2r	.	1.d	Ky-
!LO:TX:t=P:problem:przekreślona synkopowana wartość	!	!LO:TX:t=P:problem:przekreślona synkopowana wartość	!	!	!
1G	Ky-	1B-	Ky-	.	.
=2	=2	=2	=2	=2	=2
.	.	.	.	.	.
2D\	-ri-	2A\	-ri-	2d\	-ri-
=3	=3	=3	=3	=3	=3
2En\	-e	2G/	-e	1.c	-e
2F#X\	e-	4A\	e-	.	.
!	!	!LO:TX:t=P:problem:przekreślona synkopowana wartość	!	!	!
.	.	2A\	-lei-	.	.
=4	=4	=4	=4	=4	=4
!LO:TX:t=P:problem:brak kreski taktowej	!	!	!	!	!
(1G	-lei-	.	.	.	.
.	.	4G/	.	.	.
!	!	!LO:TX:t=P:problem:przekreślona synkopowana wartość	!	!	!
.	.	1G/	.	2B-\	e-
=5-	=5	=5	=5	=5	=5
1D)	.	.	.	1A	-lei-
.	.	2F#X/	.	.	.
=6	=6	=6	=6	=6	=6
1GG	-son	1G	-son	1Bn	-son
=7	=7	=7	=7	=7	=7
2r	.	2r	.	1.c	Ky-
!LO:TX:t=P:problem:przekreślona synkopowana wartość	!	!LO:TX:t=P:problem:przekreślona synkopowana wartość	!	!	!
*	*ij	*	*	*	*
1F	Ky-	1A	Ky-	.	.
=8	=8	=8	=8	=8	=8
.	.	.	.	.	.
2C/	-ri-	2G/	-ri-	2c\	-ri-
=9	=9	=9	=9	=9	=9
2D\	-e	2F/	-e	1.B-	-e
2En\	e-	4G/	e-	.	.
!	!	!LO:TX:t=P:problem:przekreślona synkopowana wartość	!	!	!
.	.	2G/	-lei-	.	.
=10	=10	=10	=10	=10	=10
!LO:TX:t=P:problem:brak kreski taktowej	!	!	!	!	!
1F	-lei-	.	.	.	.
.	.	4F/	.	.	.
!	!	!LO:TX:t=P:problem:przekreślona synkopowana wartość	!	!	!
.	.	1F/	.	2A\	e-
=11-	=11	=11	=11	=11	=11
1C	.	.	.	1G	-lei-
.	.	2En/	.	.	.
=12	=12	=12	=12	=12	=12
1FF	-son	1F	-son	1A	-son
!LO:LB:g=original	!	!	!	!LO:LB:g=original	!
=13	=13	=13	=13	=13	=13
2r	.	2r	.	1.B-	Ky-
*	*	*	*ij	*	*
!LO:TX:t=P:problem:przekreślona synkopowana wartość	!	!LO:TX:t=P:problem:brak kreski taktowej	!	!	!
1E-X	Ky-	1G	Ky-	.	.
=14	=14	=14-	=14	=14	=14
.	.	.	.	.	.
2BB-/	-ri-	2F/	-ri-	2B-\	-ri-
!	!	!LO:LB:g=original	!	!	!
=15	=15	=15	=15	=15	=15
2C/	-e	2En/	-e-	2A\	-e
!	!	!	!	!LO:TX:t=P:problem:przekreślona synkopowana wartość	!
2D/	e-	2F#X/	-e-	1A	e-
=16	=16	=16	=16	=16	=16
!LO:TX:t=P:problem:brak kreski taktowej	!	!LO:TX:t=P:problem:brak kreski taktowej	!	!	!
(1E-X	-lei-	1G	-lei-	.	.
.	.	.	.	2.G/	-lei-
=17-	=17	=17-	=17	=17	=17
1D)	.	1A	.	.	.
.	.	.	.	8F#X/L	.
.	.	.	.	8E-/J	.
.	.	.	.	2F#/	.
=18	=18	=18	=18	=18	=18
1GG;	-son	1B-;	-son	1G;	-son
*	*Xij	*	*Xij	*	*
=19||	=19	=19||	=19	=19||	=19
1r	.	1.G	Chri-	2r	.
!	!	!	!	!LO:TX:t=P:problem:przekreślona synkopowana wartość	!
.	.	.	.	1B-	Chri-
=20	=20	=20	=20	=20	=20
1.D	Chri-	.	.	.	.
.	.	4F#X/	.	4A/	-ste
.	.	4En/	.	4G/	e-
=21	=21	=21	=21	=21	=21
.	.	2Fn/	.	2A\	-lei-
!	!	!LO:TX:t=P:problem:przekreślona synkopowana wartość	!	!LO:TX:t=P:problem:przekreślona synkopowana wartość	!
4C/	.	1G	-ste	1B-	.
4BB-/	.	.	.	.	.
!LO:LB:g=original	!	!	!	!	!
=22	=22	=22	=22	=22	=22
2C/	.	.	.	.	.
!	!	!	!	!LO:TX:t=P:problem:przekreślona synkopowana wartość	!
2D/	-ste	2F#X/	e-	1A\	.
=23	=23	=23	=23	=23	=23
1GG	e-	1B-	-lei-	.	.
!	!	!	!	!LO:TX:t=P:problem:przekreślona synkopowana wartość	!
.	.	.	.	1G	.
=24	=24	=24	=24	=24	=24
!LO:LB:g=original	!	!	!	!	!
1D	-lei-	0A	-son	.	.
.	.	.	.	2F#X/	.
=25	=25	=25-	=25	=25	=25
1D	-son	.	.	1F#X	-son
!	!	!	!	!LO:LB:g=original	!
=26	=26	=26	=26	=26	=26
1r	.	2r	.	1.A	Chri-
!	!	!LO:TX:t=P:problem:przekreślona synkopowana wartość	!	!	!
*	*	*	*ij	*	*
.	.	1F/	Chri-	.	.
=27	=27	=27	=27	=27	=27
*	*ij	*	*	*	*
1.C	Chri-	.	.	.	.
.	.	4En/	.	4G/	.
.	.	4D/	.	4F/	.
!	!	!LO:LB:g=original	!	!	!
=28	=28	=28	=28	=28	=28
.	.	2E/	.	2G/	.
!	!	!LO:TX:t=P:problem:przekreślona synkopowana wartość	!	!LO:TX:t=P:problem:przekreślona synkopowana wartość	!
4BB-/	.	1F/	-ste	1A\	-ste
4AA/	.	.	.	.	.
!!pagebreak:original
=29	=29	=29	=29	=29	=29
2BB-/	.	.	.	.	.
!	!	!	!	!LO:TX:t=P:problem:przekreślona synkopowana wartość	!
2C/	-ste	2En/	e-	1G	e-
=30	=30	=30	=30	=30	=30
1FF	e-	1A	-lei-	.	.
!	!	!	!	!LO:TX:t=P:problem:przekreślona synkopowana wartość	!
.	.	.	.	1F/	-lei-
=31	=31	=31	=31	=31	=31
1C	-lei-	0G	-son	.	.
.	.	.	.	2En/	.
=32	=32	=32-	=32	=32	=32
!	!	!	!	!LO:TX:t=P:problem:brak kreski taktowej	!
!	!	!	!	!LO:SIC:v:s=1En	!
1C	-son	.	.	1E-	-son
=33	=33	=33	=33	=33-	=33
1r	.	2r	.	1.G	Chri-
!	!	!LO:TX:t=P:problem:przekreślona synkopowana wartość	!	!	!
.	.	1B-	Chri-	.	.
=34	=34	=34	=34	=34	=34
1.D	Chri-	.	.	.	.
.	.	4A/	.	4F#X/	-ste
.	.	4G/	.	4En/	e-
=35	=35	=35	=35	=35	=35
.	.	2A\	-ste	2Fn/	-lei-
!	!	!LO:TX:t=P:problem:przekreślona synkopowana wartość	!	!LO:TX:t=P:problem:przekreślona synkopowana wartość	!
4C/	.	1B-	e-	1G	.
4BB-/	.	.	.	.	.
=36	=36	=36	=36	=36	=36
2C/	.	.	.	.	.
!	!	!LO:TX:t=P:problem:przekreślona synkopowana wartość	!	!	!
2D/	-ste	1A\	-lei-	2F#X/	.
=37	=37	=37	=37	=37	=37
1GG	e-	.	.	1B-	.
!	!	!LO:TX:t=P:problem:przekreślona synkopowana wartość	!	!	!
.	.	1G	.	.	.
!LO:LB:g=original	!	!	!	!	!
=38	=38	=38	=38	=38	=38
!	!	!	!	!LO:N:vis=1	!
1D	-lei-	.	.	0A;	-son
.	.	2F#X/	.	.	.
!	!	!	!	!LO:LB:g=original	!
=39	=39	=39	=39	=39	=39
1D;	-son	1F#X;	-son	.	.
*	*Xij	*	*Xij	*	*
=40||	=40	=40||	=40	=40||	=40
2r	.	2r	.	2.A/	Ky-
!LO:TX:t=P:problem:przekreślona synkopowana wartość	!	!LO:TX:t=P:problem:przekreślona synkopowana wartość	!	!	!
1D\	Ky-	1Fn/	Ky-	.	.
.	.	.	.	4G/	-ri-
=41	=41	=41	=41	=41	=41
.	.	.	.	4A\	-e-
.	.	.	.	4B-\	.
!	!	!	!	!LO:TX:t=P:problem:przekreślona synkopowana wartość	!
2C/	-ri-	2En/	-ri-	1c	.
!	!	!LO:LB:g=original	!	!	!
=42	=42	=42	=42	=42	=42
2D\	-e	2F/	-e	.	.
2E-\	e-	2G/	e-	2B-\	.
=43	=43	=43	=43	=43	=43
!LO:TX:t=P:problem:brak kreski taktowej	!	!	!	!	!
(>1C	-lei-	4A/	-lei-	2.c\	.
.	.	4G/	.	.	.
!	!	!LO:TX:t=P:problem:przekreślona synkopowana wartość	!	!	!
.	.	1G	.	.	.
.	.	.	.	4B-\	.
=44-	=44	=44	=44	=44	=44
1D)	.	.	.	1A	-lei-
.	.	2F#X/	.	.	.
!!linebreak:original
=45	=45	=45	=45	=45	=45
1GG	-son	1G	-son	1G	-son
=46	=46	=46	=46	=46	=46
2r	.	2r	.	2.G/	Ky-
*	*ij	*	*	*	*
!LO:TX:t=P:problem:przekreślona synkopowana wartość	!	!LO:TX:t=P:problem:przekreślona synkopowana wartość	!	!	!
1C/	Ky-	1En/	Ky-	.	.
.	.	.	.	4F/	-ri-
=47	=47	=47	=47	=47	=47
.	.	.	.	4G/	-e-
.	.	.	.	4A/	.
!	!	!	!	!LO:TX:t=P:problem:przekreślona synkopowana wartość	!
2BB-/	-ri-	2D/	-ri-	1B-	.
=48	=48	=48	=48	=48	=48
2C/	-e	2En/	-e	.	.
2D/	e-	2F/	e-	2A\	.
=49	=49	=49	=49	=49	=49
!LO:TX:t=P:problem:brak kreski taktowej	!	!	!	!	!
(>1BB-	-lei-	4G/	-lei-	2.B-\	.
.	.	4F/	.	.	.
!	!	!LO:TX:t=P:problem:przekreślona synkopowana wartość	!	!	!
.	.	1F	.	.	.
.	.	.	.	4A\	.
=50-	=50	=50	=50	=50	=50
1C)	.	.	.	1G	lei-
.	.	2En/	.	.	.
=51	=51	=51	=51	=51	=51
1FF 1F	-son	1F	-son	1A	-son
!	!	!	!	!LO:LB:g=original	!
=52	=52	=52	=52	=52	=52
2r	.	2r	.	2.F/	Ky-
*	*	*	*ij	*	*
!LO:TX:t=P:problem:przekreślona synkopowana wartość	!	!LO:TX:t=P:problem:przekreślona synkopowana wartość	!	!	!
1BB-/	Ky-	1D/	Ky-	.	.
.	.	.	.	4En/	-ri-
=53	=53	=53	=53	=53	=53
.	.	.	.	4F/	-e-
.	.	.	.	4G/	.
!	!	!	!	!LO:TX:t=P:problem:przekreślona synkopowana wartość	!
2AA/	-ri-	2C/	-ri-	1A	.
!	!	!LO:LB:g=original	!	!	!
=54	=54	=54	=54	=54	=54
2BB-/	-e	2D/	-e	.	.
2C/	e-	2En/	e-	2G/	.
=55	=55	=55	=55	=55	=55
0D	-lei-	2F#X/	-lei-	2B-\	.
!	!	!LO:TX:t=P:problem:przekreślona synkopowana wartość	!	!	!
.	.	1G	.	2B-\	.
=56-	=56	=56	=56	=56	=56
.	.	.	.	1A	-lei-
.	.	2F#X/	.	.	.
=57	=57	=57	=57	=57	=57
1GG	-son	1G	-son	1Bn	-son
*	*Xij	*	*Xij	*	*
==	==	==	==	==	==
*-	*-	*-	*-	*-	*-
!!!system-decoration: [(s1,s2,s3)]
!!!RDF**kern: > = above
!!!RDF**kern: < = below
!!!ENC:Kamil Watkowski
!!!END:2021-08-03
